X: 63
T: Grey Eagle
B: canberra pickers and fiddlers
B: old time tunes update
B: tunes
M:C|
L:1/8
Q: 1/4=100
K:A
V:1 
"A"ABAF ED CD | E2A2 BAcB | AF AF EDCD |
"A"EFABA2 cB | ABAF E2C2 | E2A2 BABc |
"A"ecee "D"fecf |1 "E"ecBc "A"A2 FG :|2 "E"edcB "A"A2 af |]
|: "A"ecea fecd | "D"efec fgaf | "A"ecea fecd |
"E"efec BAFA | "A"cdef edcd | "D"efec egfg |
"A"abae "D"fgaf |1 "E"ecBc "A"A2 cd :|2 "E"ecBc "A"A2 c!D.C.!B |]
% abcbook-tune_id 67a7d9ecb20159284b868d21
% abcbook-tune_composer_id 
% abcbook-link-0 https://www.youtube.com/watch?v=Q5-ICCys-OI
% abcbook-link-title-0 Grey Eagle
% abcbook-link-1 https://www.youtube.com/watch?v=4GVIEsvvZeM
% abcbook-link-title-1 Kenny Baker - The Grey Eagle
% abcbook-link-2 https://www.youtube.com/watch?v=pUwtCvahtzg
% abcbook-link-title-2 &quot;Gray Eagle&quot;  fiddle tune
% abcbook-boost 0
% abcbook-difficulty 0
% abcbook-tags old time tunes
% abcbook-tablature 
% abcbook-transpose 
% abcbook-tuning AEAE
% abcbook-lastupdated 1739164731653
% abcbook-src-url 
% abcbook-soundfonts 
% abcbook-repeats 1


